X:0749
T:Tweed Side.
M:3/4
L:1/8
Q:1/4=100
I: :| (1) :| (2) ||
Z:Jack Campin * www.campin.me.uk * 2009
K:G
    B>A|G2 D2  E2    |G3  A``Bc | (B2 A2) B>A|    G2    D2 E2|   G2      (dc)(BA)   |({A}G4)
    BA |G2 D2 (E2{F})|G>FGA``Bc |(TB2 A2) GA |    B2{cd}cB AG|   A2       D2  F2    |    G4:|
    B>c|d2(cB)(AG)   |d2(ed)(cB)|  B2 A2  Bc |{Bc}d2    cB`AB|   G>F``````GA``Bc    |    d4
{ef}g2 |ed`cB``AG    |dB`ed``cB | (B2 A2) G>A|    B/c/d cB AG|[1 A2       D2  F2{EF}|    G4:|\
                                                              [2 f/e/d/c/ B2 TA2{GA}|    G4|]
<end>
<start>
